src/assets/image/sns/ic-sns-insta.svg

<?xml version="1.0" encoding="UTF-8"?>
<svg width="24px" height="24px" viewBox="0 0 24 24" version="1.1" xmlns="http://www.w3.org/2000/svg" xmlns:xlink="http://www.w3.org/1999/xlink">
    <!-- Generator: sketchtool 54.1 (76490) - https://sketchapp.com -->
    <title>8DE54AC1-AA7A-4862-90A7-9E30DE53893C</title>
    <desc>Created with sketchtool.</desc>
    <defs>
        <path d="M7.05241535,0.0722132578 C8.33234294,0.0138138818 8.74099567,0 12.0000238,0 C15.2590043,0 15.6676571,0.0138138818 16.9475847,0.0722132578 C18.2248447,0.130469732 19.0971676,0.333343257 19.860456,0.630008276 C20.6495621,0.936628817 21.3187732,1.34694874 21.985936,2.01406396 C22.6530513,2.68122682 23.0633712,3.35043794 23.3700394,4.13954402 C23.6666567,4.90283244 23.8695303,5.77515526 23.9277867,7.05241535 C23.9861861,8.33234294 24,8.74099567 24,12.0000238 C24,15.2590043 23.9861861,15.6676571 23.9277867,16.9475847 C23.8695303,18.2248447 23.6666567,19.0971676 23.3700394,19.860456 C23.0633712,20.6495621 22.6530513,21.3187732 21.985936,21.985936 C21.3187732,22.6530513 20.6495621,23.0633712 19.860456,23.3700394 C19.0971676,23.6666567 18.2248447,23.8695303 16.9475847,23.9277867 C15.6676571,23.9861861 15.2590043,24 12.0000238,24 C8.74099567,24 8.33234294,23.9861861 7.05241535,23.9277867 C5.77515526,23.8695303 4.90283244,23.6666567 4.13954402,23.3700394 C3.35043794,23.0633712 2.68122682,22.6530513 2.01406396,21.985936 C1.34694874,21.3187732 0.936628817,20.6495621 0.630008276,19.860456 C0.333343257,19.0971676 0.130469732,18.2248447 0.0722132578,16.9475847 C0.0138138818,15.6676571 0,15.2590043 0,12.0000238 C0,8.74099567 0.0138138818,8.33234294 0.0722132578,7.05241535 C0.130469732,5.77515526 0.333343257,4.90283244 0.630008276,4.13954402 C0.936628817,3.35043794 1.34694874,2.68122682 2.01406396,2.01406396 C2.68122682,1.34694874 3.35043794,0.936628817 4.13954402,0.630008276 C4.90283244,0.333343257 5.77515526,0.130469732 7.05241535,0.0722132578 Z M12.0000271,5 C8.13398189,5 5,8.13398189 5,12.0000271 C5,15.8660181 8.13398189,19 12.0000271,19 C15.8660181,19 19,15.8660181 19,12.0000271 C19,8.13398189 15.8660181,5 12.0000271,5 Z M7.5,12.0000268 C7.5,9.51470702 9.51470702,7.5 12.0000268,7.5 C14.485293,7.5 16.5,9.51470702 16.5,12.0000268 C16.5,14.485293 14.485293,16.5 12.0000268,16.5 C9.51470702,16.5 7.5,14.485293 7.5,12.0000268 Z M19.1899781,6.13000381 C19.9852766,6.13000381 20.6300038,5.48532424 20.6300038,4.69002572 C20.6300038,3.89472721 19.9852766,3.25 19.1899781,3.25 C18.3947272,3.25 17.75,3.89472721 17.75,4.69002572 C17.75,5.48532424 18.3947272,6.13000381 19.1899781,6.13000381 Z" id="path-1"></path>
    </defs>
    <g id="Symbols" stroke="none" stroke-width="1" fill="none" fill-rule="evenodd">
        <g id="ic/sns-insta">
            <g id="Instagram-2"></g>
            <mask id="mask-2" fill="white">
                <use xlink:href="#path-1"></use>
            </mask>
            <use id="Instagram-Copy" fill="#000000" xlink:href="#path-1"></use>
            <g id="color/white" mask="url(#mask-2)" fill="#FFFFFF">
                <rect id="Rectangle" x="0" y="0" width="24" height="24"></rect>
            </g>
        </g>
    </g>
</svg>

<svg xmlns="http://www.w3.org/2000/svg" xmlns:xlink="http://www.w3.org/1999/xlink" width="24" height="24" viewBox="0 0 24 24">
    <defs>
        <path id="a" d="M7.052.072C8.332.014 8.741 0 12 0c3.259 0 3.668.014 4.948.072 1.277.058 2.15.261 2.912.558.79.307 1.459.717 2.126 1.384A5.883 5.883 0 0 1 23.37 4.14c.297.763.5 1.635.558 2.912C23.986 8.332 24 8.741 24 12c0 3.259-.014 3.668-.072 4.948-.058 1.277-.261 2.15-.558 2.912a5.883 5.883 0 0 1-1.384 2.126 5.883 5.883 0 0 1-2.126 1.384c-.763.297-1.635.5-2.912.558-1.28.058-1.689.072-4.948.072-3.259 0-3.668-.014-4.948-.072-1.277-.058-2.15-.261-2.912-.558a5.883 5.883 0 0 1-2.126-1.384A5.882 5.882 0 0 1 .63 19.86c-.297-.763-.5-1.635-.558-2.912C.014 15.668 0 15.259 0 12c0-3.259.014-3.668.072-4.948C.13 5.775.333 4.902.63 4.14a5.882 5.882 0 0 1 1.384-2.126A5.882 5.882 0 0 1 4.14.63C4.903.333 5.775.13 7.052.072zM12 5a7 7 0 1 0 0 14 7 7 0 0 0 0-14zm-4.5 7a4.5 4.5 0 1 1 9 0 4.5 4.5 0 0 1-9 0zm11.69-5.87a1.44 1.44 0 1 0 0-2.88 1.44 1.44 0 0 0 0 2.88z"/>
    </defs>
    <g fill="none" fill-rule="evenodd">
        <mask id="b" fill="#fff">
            <use xlink:href="#a"/>
        </mask>
        <use fill="#000" xlink:href="#a"/>
        <g fill="#FFF" mask="url(#b)">
            <path d="M0 0h24v24H0z"/>
        </g>
    </g>
</svg>
